symbols/web/list_alt/materialsymbolsoutlined/list_alt_grad200fill1_24px.svg

<svg xmlns="http://www.w3.org/2000/svg" height="24" width="24"><path d="M8 17.525q.55 0 .938-.388.387-.387.387-.937t-.387-.938q-.388-.387-.938-.387-.55 0-.938.387-.387.388-.387.938 0 .55.387.937.388.388.938.388Zm0-4.2q.55 0 .938-.387.387-.388.387-.938 0-.55-.387-.938-.388-.387-.938-.387-.55 0-.938.387-.387.388-.387.938 0 .55.387.938.388.387.938.387Zm0-4.25q.55 0 .938-.387.387-.388.387-.938 0-.55-.387-.938Q8.55 6.425 8 6.425q-.55 0-.938.387-.387.388-.387.938 0 .55.387.938.388.387.938.387Zm2.85 8.475h6.5V14.9h-6.5Zm0-4.25h6.5v-2.65h-6.5Zm0-4.2h6.5V6.45h-6.5ZM5 21.65q-1.1 0-1.875-.775Q2.35 20.1 2.35 19V5q0-1.1.775-1.875Q3.9 2.35 5 2.35h14q1.1 0 1.875.775.775.775.775 1.875v14q0 1.1-.775 1.875-.775.775-1.875.775Z"/></svg>

<svg xmlns="http://www.w3.org/2000/svg" height="24" width="24"><path d="M4.85 21.8Q3.75 21.8 2.975 21.025Q2.2 20.25 2.2 19.15V4.85Q2.2 3.75 2.975 2.975Q3.75 2.2 4.85 2.2H19.15Q20.25 2.2 21.025 2.975Q21.8 3.75 21.8 4.85V19.15Q21.8 20.25 21.025 21.025Q20.25 21.8 19.15 21.8ZM8 17.525Q8.55 17.525 8.938 17.137Q9.325 16.75 9.325 16.2Q9.325 15.65 8.938 15.262Q8.55 14.875 8 14.875Q7.45 14.875 7.062 15.262Q6.675 15.65 6.675 16.2Q6.675 16.75 7.062 17.137Q7.45 17.525 8 17.525ZM8 13.325Q8.55 13.325 8.938 12.938Q9.325 12.55 9.325 12Q9.325 11.45 8.938 11.062Q8.55 10.675 8 10.675Q7.45 10.675 7.062 11.062Q6.675 11.45 6.675 12Q6.675 12.55 7.062 12.938Q7.45 13.325 8 13.325ZM8 9.075Q8.55 9.075 8.938 8.688Q9.325 8.3 9.325 7.75Q9.325 7.2 8.938 6.812Q8.55 6.425 8 6.425Q7.45 6.425 7.062 6.812Q6.675 7.2 6.675 7.75Q6.675 8.3 7.062 8.688Q7.45 9.075 8 9.075ZM10.85 17.55H17.35V14.9H10.85ZM10.85 13.3H17.35V10.65H10.85ZM10.85 9.1H17.35V6.45H10.85Z"/></svg>
